X:1
T:Greenland (Clark), 76.76 D
T:Greenland (Clark), 76.76 D
T:Thomas Clark, 1828
T:Public Domain Courtesy of the Cyber Hymnal™
C:Thomas Clark, 1828
Z:Public Domain
Z:Courtesy of the Cyber Hymnal™
%%score ( 1 2 ) ( 3 4 )
L:1/8
Q:1/4=115
M:4/4
K:E
V:1 treble 
V:2 treble 
V:3 bass 
V:4 bass 
V:1
 [EB]2 | [Ee]2 [EG]2 [Ec]2 [EB]2 | B3 (z A) [EG]2 [EG]2 | [DF]2 [FB]2 [GB]2 ([FA][EG]) | %4
 [EG]4 [DF]2 [DF]2 | [EG]2 [FB]2 [Fe]2 [Fd]2 | [Fd]4 [Fc]2 [Fd]2 | (G^A) ([FB][Gc]) [Fd]2 [Ec]2 | %8
 [DB]6 [FB]2 | [EB]2 [EG]2 [EA]2 [Ec]2 | [Ec]4 [EB]2 [FB]2 | [Ge]2 [Fd]2 [Ec]2 [D^B]2 | %12
 [Ec]6 [EB]2 | [Ec]2 [EB]2 [Ad]2 [Ge]2 | (F2 [EG]2) [EA]2 [Ec]2 | [EB]2 (cA) [EG]2 [DF]2 | E6 |] %17
V:2
 x2 | x8 | F2 D2 x5 | x8 | x8 | x8 | x8 | E2 x6 | x8 | x8 | x8 | x8 | x8 | x8 | F2 x6 | x2 E2 x4 | %16
 E6 |] %17
V:3
 [E,G,]2 | [G,B,]2 [E,B,]2 A,2 [G,B,]2 | B,4 [E,B,]2 [E,B,]2 x | [B,,B,]2 [A,,D]2 [G,,E]2 [A,,C]2 | %4
 [B,,B,]6 [B,,B,]2 | [E,B,]2 [D,B,]2 [C,^A,]2 [B,,B,]2 | [F,B,]4 [F,^A,]2 [B,,B,]2 | %7
 (B,C) B,2 [F,B,]2 [F,,^A,]2 | [B,,B,]6 [D,B,]2 | [E,G,]2 [=D,B,]2 [C,A,]2 [A,,A,]2 | %10
 [E,A,]4 [E,G,]2 [D,B,]2 | [C,G,]2 [F,A,]2 G,2 [G,,G,]2 | [C,G,]6 [E,G,]2 | %13
 A,2 [G,B,]2 [F,B,]2 [E,B,]2 | [=D,B,]4 [C,A,]2 A,2 | [G,E]2 [A,C]2 B,2 [B,,A,]2 | [E,G,]6 |] %17
V:4
 x2 | x4 A,2 x2 | (D,2 B,,2) x5 | x8 | x8 | x8 | x8 | E,2 (D,E,) x4 | x8 | x8 | x8 | x4 G,2 x2 | %12
 x8 | A,2 x6 | x6 A,2 | x4 B,2 x2 | x6 |] %17

